X: 38566
T: Stockport, The
R: hornpipe
M: 4/4
K: Gmajor
|:BA|GB dG B2 (3BAG|AD FA c2 BA|Gd BG Fc AF|GB de (3ded (3cBA|
GB dG B2 (3BAG|AD FA c2 BA|Gd BG Fc AF|G2 B2 G2:|
|:(3def|gG (3Bcd gf ed|eE GB ed cB|AG AB cB cd|(3efg (3FGA GF (3def|
gG (3Bcd gf ed|eE GB ed cB|F2 (3gfe (3ded (3cBA|G2 F2 G2:|

